X:1
T:Test Ties and Slurs
M:C
L:1/4
K:C

(CDEF) | (fedc) | (DDdd) | (ddDD) |

(DFAc | cAFD) |

G-G dd- | d EEE- | EEE-E|